X:94
T:Blickling Races. GS.094
T:Timour The Tartar,aka. GS.094
T:Blanchard Races,aka. GS.094
M:2/2
L:1/8
Q:1/2=90
S:George Spencer m/s, Leeds,1831
R:.Reel
O:England
A:Leeds
N:Blickling in Norfolk? Though someone has written â€˜Brickling Racesâ€™,
N:probably in pencil. George Spencer Leeds is written on the stave at
N:the end of the tune. Pause is the conventional sign, written over the
N:first double bar. DC is written after the second double bar on the
N:stave..
K:A major
A2 (c/2B/2A) eAcA | eAaA gAfA | eA (c/2B/2A) eAcA | BEcE dEcE |!
A2 (c/2B/2A) eAcA |eAaA gAfA | efed caec | BABc A2HA2 || !
G2 (G/2F/2E) BEGE | BEdE cEBE |\
A2 (c/2B/2A) eAcA | eAfA eAcA |!
eA (c/2B/2A) aAfA | eA (c/2B/2A) aAfA|\
ecfe dcBA | GABA GEFâ€^DCâ€G |]

